X:1
T:Lidia miri Narcisi
T:Lidia miri Narcisi
T:Marco Antonio Ingegneri
C:Marco Antonio Ingegneri
%%score [ 1 2 3 4 ]
L:1/8
Q:1/4=70
M:4/4
K:G
V:1 treble nm="Soprano" snm="S"
V:2 treble nm="Alto" snm="A"
V:3 treble-8 nm="Tenor" snm="T"
V:4 bass nm="Bass" snm="B"
V:1
 z2 A4 ^G2 | z4 z2 F2 | GB A2 B2 z2 | z2 z A2 G2 F | ED C2 B, G2 A | B2 AB c2 B2 | B2 G2 F2 ^G2 | %7
w: Ly- dia|mi-|ri Nar- ci- so|long' il vi-|ci- no ri- o Com' ei|vi- ve dell' ac- que|on- de mo- rio,|
 z4 z G2 A | B2 AB c2 B2 | B2 G2 F2 ^G2 | z2 ^G4 A2 | A B2 B A2 ^G2 | z E F2 G2 EF | G2 F2 z2 z D | %14
w: Com' ei|vi- ve dell' ac- que|on- de mo- rio,|Tal s'io|mi spec- chio~e~a- fi- so|Ne bei cris- tal- li~ar-|den- ti De|
 D2 D E2 F G2 | F2 z B2 B B2 | A4 A4 | B2 c4 B2 | z2 A2 B2 c2- | c2 B4 A2 | G4 F4 | z2 G2 FG A2 | %22
w: gl'oc- chi tuoi lu- cen-|ti, Di bel- tà|font' in|un cru- del|in un cru-|* del e|pi- o,|Per te mi mo-|
 B4 z4 | G2 F3 G A2 | B2 z2 z2 e2- | ed c2 B4- | B2 A2 B4 | B4 z4 | A2 G3 A =F2 | E2 z2 e3 d | %30
w: ro|Per te mi mo-|ro e|_ di te viv'|_ anch' i-|o,|Per te mi mo-|ro e di|
 c2 B3 A/G/ F2 | B2 A3 ^G/F/ G2 | A8 |] %33
w: te viv' _ _ _|anch' i- * * *|o.|
V:2
 E8 | A,2 z2 z2 D2 | B,D C2 B,2 z2 | z2 E4 D2 | C B,2 A, B,B, z2 | DE F2 EF G2 | G F2 E ^D2 E2 | %7
w: Ly-|dia mi-|ri Nar- ci- so|long' il|vi- ci- no ri- o|Com' ei vi- ve dell' ac-|que on- de mo- rio,|
 z8 | DE F2 EF G2 | G F2 E ^D2 E2 | z2 E4 E2 | F G2 G E2 E2 | z ^C D2 D E2 D | B,2 D A,2 D2 B, | %14
w: |Com' ei vi- ve dell' ac-|que on- de mo- rio,|Tal s'io|mi spec- chio~e~a- fi- so|Ne bei cris- tal- li~ar-|den- ti De gl'oc- chi|
 A,A,DC ED B,>C | D2 D2 G2 GG | E4 F4 | G8 | F2 E2 z2 G2 | G6 F2 | EB, E4 ^D2 | z2 E2 DE C2 | %22
w: tuoi De gl'oc- chi tuoi lu- cen- *|* ti, Di bel- tà|font' in|un|cru- del in|un cru-|del e pi- o,|Per te mi mo-|
 B,4 z2 E2- | E2 D3 E C2 | B,2 E3 F G2 | E4 D2 G2- | GF E2 FG F2 | ^G4 z4 | z2 C2 B,C D2 | %29
w: ro Per|_ te mi mo-|ro e di te|vi- vo, e|_ di te viv' anch' i-|o,|Per te mi mo-|
 E2 E3 F G2 | G3 F/E/ D3 E/F/ | G2 E2 E4 | E8 |] %33
w: ro e di te|viv' _ _ _ _ _|_ anch' i-|o.|
V:3
 c4 B4 | z dBd c2 B2 | z2 z e2 d2 c- | c B2 A B2 B2 | z2 e3 d c2 | Bc d2 A2 GA | B4 B4 | %7
w: Ly- dia|mi- ri Nar- ci- so|long' il vi-|* ci- no ri- o|Com' ei vi-|ve dell' ac- que on- de|mo- rio,|
 z2 e3 d c2 | Bc d2 A2 GA | B4 B4 | z2 B4 ^c2 | d d2 e c2 B2 | z A A2 BGGB- | B/A/G A2 D2 G2 | %14
w: Com' ei vi-|ve dell' ac- que on- de|mo- rio,|Tal s'io|mi spec- chio~e~a- fi- so|Ne bei cris- tal- li~ar- den-|* * * ti De gl'oc-|
 F2 G2 GB>AG | A2 B>c dedd- | d^c/B/ c2 d2 d2- | d2 e4 d2 | z2 c2 d2 e2- | e2 d4 d2 | B4 B4 | %21
w: chi tuoi lu- cen- * *|ti, Di _ _ bel- tà font'|_ _ _ _ in un|_ cru- del|in un cru-|* del e|pi- o,|
 z4 z2 e2- | e2 d3 e c2 | B2 z2 z2 e2- | ed c2 B2 E2 | G2 G2 Bc d2- | d2 e2 ^d e2 d | e4 z cBc | %28
w: Per|_ te mi mo-|ro e|_ di te viv' anch'|i- o, e di te|_ viv' anch' i- *|o, Per te mi|
 d2 e2 z4 | c3 B A2 GF | EFGA Bc d2- | d2 c2 B4 | A8 |] %33
w: mo- ro|e di te viv' _|_ _ _ _ _ _ _|* anch' i-|o.|
V:4
 A,4 E,4 | z F,G,B, A,2 B,2 | z2 A,2 G,2 F,E,- | E,D, C,2 B,,4 | E,3 F, G,2 E,F, | %5
w: Ly- dia|mi- ri Nar- ci- so|long' il vi- ci-|* no ri- o|Com' ei vi- ve dell'|
 G,2 D,2 z2 E,2- | E,^D, E,2 B,,2 E,2 | E,3 F, G,2 E,F, | G,2 D,2 z2 E,2- | E,^D, E,2 B,,2 E,2 | %10
w: ac- que on-|* de mo- ri- o,|Com' ei vi- ve dell'|ac- que on-|* de mo- ri- o,|
 z2 E,4 A,2 | D, G,2 E, A,2 E,2 | z A,, D,2 B,, C,2 B,, | E,2 D,2 z2 z G,, | D,2 B,, C,2 B,, E,2 | %15
w: Tal s'io|mi spec- chio~e~a- fi- so|Ne bei cris- tal- li~ar-|den- ti De|gl'oc- chi tuoi lu- cen-|
 D,2 G,3 E, G,2 | A,4 D,4 | G,8 | A,4 G,4- | G,4 D,4 | E,4 B,,4 | z8 | z2 G,2 F,G, A,2 | B,4 z4 | %24
w: ti, Di bel- tà|font' in|un|cru- del|_ e|pi- o,||Per te mi mo-|ro|
 E,3 F, G,2 C,2- | C,D,E,F, G,3 A, | B,2 C2 B,4 | E,4 z A,G,A, | =F,2 E,2 z4 | A,3 B, C2 C,2- | %30
w: e di te viv'|_ _ _ _ _ _|* anch' i-|o, Per te mi|mo- ro|e di te viv'|
 C,D,E,F, G,A,B,A, | G,2 A,2 E,4 | A,,8 |] %33
w: _ _ _ _ _ _ _ _|* anch' i-|o.|

